Catalina-dark/actions/22/irc-unvoice.svg

<svg xmlns="http://www.w3.org/2000/svg" viewBox="0 0 22 22">
  <defs id="defs3051">
    <style type="text/css" id="current-color-scheme">
      .ColorScheme-NegativeText {
        color:#da4453;
      }
      </style>
  </defs>
 <path 
     style="fill:currentColor;fill-opacity:1;stroke:none"      
	 class="ColorScheme-NegativeText"
        d="M 13.910156 3.8769531 C 13.734743 3.8237225 13.53 3.8738682 13.410156 4.0605469 C 11.853918 6.4864551 10.3212 7.6015625 3.8027344 7.6015625 C 2.2552013 7.6015625 1 8.860679 1 10.408203 C 1 11.911909 2.1869783 13.140864 3.6738281 13.208984 L 5.1914062 18.142578 L 7.4335938 18.142578 L 5.9335938 13.263672 C 10.686944 13.500985 12.039762 14.621964 13.410156 16.757812 C 13.64963 17.131411 14.232422 16.953627 14.232422 16.509766 L 14.232422 10.408203 L 14.232422 4.3085938 C 14.232422 4.0866586 14.085569 3.9301837 13.910156 3.8769531 z M 17.875 7.6074219 C 17.308084 7.6074219 16.785363 7.747931 16.306641 8.0273438 C 15.827869 8.3067066 15.449335 8.6852904 15.169922 9.1640625 C 14.890459 9.6428346 14.75 10.165556 14.75 10.732422 C 14.75 11.299338 14.890559 11.821959 15.169922 12.300781 C 15.449335 12.779453 15.827869 13.158087 16.306641 13.4375 C 16.785413 13.716913 17.308084 13.857422 17.875 13.857422 C 18.441916 13.857422 18.964637 13.716913 19.443359 13.4375 C 19.922082 13.158137 20.300665 12.779503 20.580078 12.300781 C 20.859441 11.822009 21 11.299288 21 10.732422 C 21 10.165506 20.859391 9.6427847 20.580078 9.1640625 C 20.300665 8.6853403 19.922082 8.3067565 19.443359 8.0273438 C 18.964537 7.747931 18.441966 7.6074219 17.875 7.6074219 z M 16.955078 9.1816406 C 17.025593 9.1816406 17.087134 9.2082278 17.138672 9.2597656 L 17.875 9.9960938 L 18.611328 9.2597656 C 18.662766 9.2082278 18.724407 9.1816406 18.794922 9.1816406 C 18.868183 9.1816406 18.930884 9.2082278 18.982422 9.2597656 L 19.347656 9.625 C 19.399194 9.6765378 19.425781 9.7392384 19.425781 9.8125 C 19.425781 9.8830149 19.399194 9.9446059 19.347656 9.9960938 L 18.611328 10.732422 L 19.347656 11.46875 C 19.399194 11.520238 19.425781 11.581829 19.425781 11.652344 C 19.425781 11.725555 19.399194 11.786403 19.347656 11.837891 L 18.982422 12.205078 C 18.930884 12.256616 18.868183 12.283203 18.794922 12.283203 C 18.724407 12.283203 18.662766 12.256616 18.611328 12.205078 L 17.875 11.46875 L 17.138672 12.205078 C 17.087134 12.256616 17.025593 12.283203 16.955078 12.283203 C 16.881817 12.283203 16.821069 12.256616 16.769531 12.205078 L 16.402344 11.837891 C 16.350806 11.786403 16.324219 11.725555 16.324219 11.652344 C 16.324219 11.581829 16.350806 11.520238 16.402344 11.46875 L 17.138672 10.732422 L 16.402344 9.9960938 C 16.350806 9.9446059 16.324219 9.8830149 16.324219 9.8125 C 16.324219 9.7392384 16.350806 9.6765378 16.402344 9.625 L 16.769531 9.2597656 C 16.821069 9.2082278 16.881817 9.1816406 16.955078 9.1816406 z "
     />
</svg>

<svg viewBox="0 0 22 22" xmlns="http://www.w3.org/2000/svg">
<defs>
<style id="current-color-scheme" type="text/css">.ColorScheme-NegativeText {
        color:#da4453;
      }</style>
</defs>
<path class="ColorScheme-NegativeText" d="m13.91 3.877c-0.17541-0.053231-0.38016-0.0030849-0.5 0.18359-1.5562 2.4259-3.089 3.541-9.6074 3.541-1.5475 0-2.8027 1.2591-2.8027 2.8066 0 1.5037 1.187 2.7327 2.6738 2.8008l1.5176 4.9336h2.2422l-1.5-4.8789c4.7534 0.23731 6.1062 1.3583 7.4766 3.4941 0.23947 0.3736 0.82227 0.19582 0.82227-0.24805v-12.201c0-0.22194-0.14685-0.37841-0.32227-0.43164zm3.9648 3.7305c-0.56692 0-1.0896 0.14051-1.5684 0.41992-0.47877 0.27936-0.85731 0.65795-1.1367 1.1367-0.27946 0.47877-0.41992 1.0015-0.41992 1.5684 0 0.56692 0.14056 1.0895 0.41992 1.5684 0.27941 0.47867 0.65795 0.85731 1.1367 1.1367s1.0014 0.41992 1.5684 0.41992 1.0896-0.14051 1.5684-0.41992c0.47872-0.27936 0.85731-0.658 1.1367-1.1367 0.27936-0.47877 0.41992-1.0015 0.41992-1.5684 0-0.56692-0.14061-1.0896-0.41992-1.5684-0.27941-0.47872-0.658-0.85731-1.1367-1.1367-0.47882-0.27941-1.0014-0.41992-1.5684-0.41992zm-0.91992 1.5742c0.070515 0 0.13206 0.026587 0.18359 0.078125l0.73633 0.73633 0.73633-0.73633c0.051438-0.051538 0.11308-0.078125 0.18359-0.078125 0.073261 0 0.13596 0.026587 0.1875 0.078125l0.36523 0.36523c0.051538 0.051538 0.078125 0.11424 0.078125 0.1875 0 0.070515-0.026587 0.13211-0.078125 0.18359l-0.73633 0.73633 0.73633 0.73633c0.051538 0.051488 0.078125 0.11308 0.078125 0.18359 0 0.073211-0.026587 0.13406-0.078125 0.18555l-0.36523 0.36719c-0.051538 0.051538-0.11424 0.078125-0.1875 0.078125-0.070515 0-0.13216-0.026587-0.18359-0.078125l-0.73633-0.73633-0.73633 0.73633c-0.051538 0.051538-0.11308 0.078125-0.18359 0.078125-0.073261 0-0.13401-0.026587-0.18555-0.078125l-0.36719-0.36719c-0.051538-0.051488-0.078125-0.11234-0.078125-0.18555 0-0.070515 0.026587-0.13211 0.078125-0.18359l0.73633-0.73633-0.73633-0.73633c-0.051538-0.051488-0.078125-0.11308-0.078125-0.18359 0-0.073262 0.026587-0.13596 0.078125-0.1875l0.36719-0.36523c0.051538-0.051538 0.11229-0.078125 0.18555-0.078125z" fill="currentColor"/>
</svg>
